svg/furkot/freepik/hostel.svg

<svg viewBox="0 0 512 512" xmlns="http://www.w3.org/2000/svg"><path d="m482.644 33.447c-14.994 0-27.681 12.687-27.681 27.681v91.115h-396.755v-124.562c0-14.994-12.687-27.681-27.681-27.681-14.993 0-27.68 12.687-27.68 27.681v456.729c0 14.994 12.687 27.681 27.68 27.681 14.994 0 27.681-12.687 27.681-27.681v-32.294h395.601v32.294c0 14.994 12.686 27.681 27.681 27.681s27.68-12.687 27.68-27.681v-423.282c1.154-14.994-11.533-27.681-26.526-27.681zm-424.435 352.928v-166.084h395.601v167.237h-395.601z"/><path d="m397.295 295.259h-189.151c-19.607 0-35.754 16.147-35.754 34.601 0 19.607 16.147 34.601 35.754 34.601h190.304c19.607 0 35.753-16.148 35.753-34.601-1.151-18.454-17.299-34.601-36.906-34.601zm-189.15-163.776h190.304c19.607 0 35.753-16.147 35.753-34.601 0-19.607-16.147-34.601-35.753-34.601h-190.304c-19.607 0-35.754 16.147-35.754 34.601-.001 19.607 16.146 34.601 35.754 34.601z"/></svg>

<svg xmlns="http://www.w3.org/2000/svg" viewBox="0 0 512 512"><path d="M482.644 33.447C467.65 33.447 454.963 46.134 454.963 61.128V152.243H58.208V27.681C58.208 12.687 45.521 0 30.527 0 15.534 0 2.847 12.687 2.847 27.681V484.41C2.847 499.404 15.534 512.091 30.527 512.091 45.521 512.091 58.208 499.404 58.208 484.41V452.116H453.809V484.41C453.809 499.404 466.495 512.091 481.49 512.091S509.17 499.404 509.17 484.41V61.128C510.324 46.134 497.637 33.447 482.644 33.447ZM58.209 386.375V220.291H453.81V387.528H58.209V386.375Z"/><path d="M397.295 295.259H208.144C188.537 295.259 172.39 311.406 172.39 329.86 172.39 349.467 188.537 364.461 208.144 364.461H398.448C418.055 364.461 434.201 348.313 434.201 329.86 433.05 311.406 416.902 295.259 397.295 295.259zM208.145 131.483H398.449C418.056 131.483 434.202 115.336 434.202 96.882 434.202 77.275 418.055 62.281 398.449 62.281H208.145C188.538 62.281 172.391 78.428 172.391 96.882 172.39 116.489 188.537 131.483 208.145 131.483z"/></svg>
